public/assets/icons/file-upload.svg

<svg width="97" height="77" viewBox="0 0 97 77" fill="none" xmlns="http://www.w3.org/2000/svg">
<path d="M17.0168 24.0902H17.3119C20.066 23.8934 22.1316 21.5328 22.0332 18.7787C21.8365 16.0246 19.4759 13.959 16.7218 14.0574C13.9677 14.1557 11.9021 16.6147 12.0004 19.3688C12.0988 22.0246 14.3611 24.0902 17.0168 24.0902ZM14.6562 17.0082C15.148 16.418 15.9349 16.0246 16.7218 16.0246H16.9185C18.5906 16.0246 19.9677 17.4016 19.9677 19.0738C19.9677 20.7459 18.5906 22.1229 16.9185 22.1229C15.2463 22.1229 13.8693 20.7459 13.8693 19.0738C13.8693 18.2869 14.1644 17.5984 14.6562 17.0082Z" fill="#5C5C7B"/>
<path d="M84.2961 18.582L58.0338 17.1066L57.8371 14.1557C57.542 8.54918 52.7223 4.22131 47.0174 4.51639L13.6731 6.38524C8.06656 6.68032 3.73869 11.5984 4.03377 17.2049L5.90262 50.6475V51.4344C6.59115 56.5492 10.919 60.3852 16.0338 60.3852H16.6239L37.9682 59.2049V59.7951C37.6731 65.4016 41.9026 70.3197 47.6075 70.6148L81.0502 72.582H81.6403C87.0502 72.582 91.5748 68.3525 91.8698 62.9426L93.8371 29.5C94.2305 23.7951 89.9026 18.9754 84.2961 18.582ZM8.06656 11.1066C9.54197 9.43442 11.6075 8.45082 13.7715 8.35245L47.2141 6.4836C51.7387 6.18852 55.6731 9.7295 55.9682 14.2541L56.1649 17.0082L50.9518 16.7131C45.3452 16.418 40.4272 20.6475 40.1321 26.3525L39.542 35.6967L30.1977 46.2213C30.001 46.5164 29.6075 46.6148 29.2141 46.7131C28.8207 46.7131 28.5256 46.6148 28.2305 46.3197L20.5584 39.4344C19.1813 38.1557 17.1157 38.3525 15.837 39.7295L7.86983 48.6803L6.09934 17.2049C5.90262 14.9426 6.68951 12.7787 8.06656 11.1066ZM16.6239 58.3197C12.3944 58.5164 8.65672 55.5656 7.96819 51.3361L17.2141 41.0082C17.4108 40.7131 17.8043 40.6148 18.1977 40.5164C18.5911 40.5164 18.8862 40.6148 19.1813 40.9098L26.8534 47.7951C27.542 48.3852 28.4272 48.6803 29.3125 48.6803C30.1977 48.6803 30.9846 48.1885 31.5748 47.5984L39.2469 38.9426L38.1649 57.2377L16.6239 58.3197ZM91.8698 29.3033L89.9026 62.7459C89.6075 67.2705 85.6731 70.8115 81.1485 70.5164L47.7059 68.5492C43.1813 68.2541 39.6403 64.3197 39.9354 59.7951L41.9026 26.3525C42.1977 22.0246 45.7387 18.582 50.1649 18.582H50.6567L84.0993 20.5492C88.7223 20.8443 92.1649 24.7787 91.8698 29.3033Z" fill="#5C5C7B"/>
<path d="M77.9027 41.4016L61.2797 30.4836C59.2141 29.1066 56.46 29.6967 55.1813 31.7623C54.7879 32.4508 54.4928 33.1393 54.4928 33.9262L53.3125 53.6967C53.2141 56.1557 54.9846 58.2213 57.4436 58.418H57.7387C58.4273 58.418 59.1158 58.2213 59.7059 57.9262L77.4109 49.0738C79.5748 47.9918 80.46 45.3361 79.3781 43.1721C78.9846 42.4836 78.4928 41.8934 77.9027 41.4016ZM76.5256 47.3033L58.8207 56.1557C58.4273 56.3525 58.0338 56.4508 57.542 56.4508C57.1486 56.4508 56.6568 56.2541 56.3617 56.0574C55.6732 55.5656 55.1814 54.7787 55.2797 53.8934L56.46 34.123C56.5584 33.2377 57.0502 32.4508 57.8371 32.0574C58.624 31.6639 59.5092 31.7623 60.2961 32.1557L76.7223 43.0738C77.9027 43.8607 78.1977 45.3361 77.4109 46.418C77.2141 46.8115 76.9191 47.1066 76.5256 47.3033Z" fill="#5C5C7B"/>
</svg>

<?xml version="1.0"?>
<svg width="97" height="77" xmlns="http://www.w3.org/2000/svg" xmlns:svg="http://www.w3.org/2000/svg">
 <g class="layer">
  <title>Layer 1</title>
  <path d="m17.02,24.09l0.29,0c2.76,-0.2 4.82,-2.56 4.72,-5.31c-0.19,-2.76 -2.55,-4.82 -5.31,-4.72c-2.75,0.1 -4.82,2.55 -4.72,5.31c0.1,2.65 2.36,4.72 5.02,4.72zm-2.36,-7.08c0.49,-0.59 1.27,-0.99 2.06,-0.99l0.2,0c1.67,0 3.05,1.38 3.05,3.05c0,1.68 -1.38,3.05 -3.05,3.05c-1.67,0 -3.05,-1.37 -3.05,-3.05c0,-0.78 0.29,-1.47 0.79,-2.06z" fill="#ff0000" id="svg_1"/>
  <path d="m84.3,18.58l-26.27,-1.47l-0.19,-2.95c-0.3,-5.61 -5.12,-9.94 -10.82,-9.64l-33.35,1.87c-5.6,0.29 -9.93,5.21 -9.64,10.81l1.87,33.45l0,0.78c0.69,5.12 5.02,8.96 10.13,8.96l0.59,0l21.35,-1.19l0,0.6c-0.3,5.6 3.93,10.52 9.64,10.81l33.44,1.97l0.59,0c5.41,0 9.93,-4.23 10.23,-9.64l1.97,-33.44c0.39,-5.7 -3.94,-10.52 -9.54,-10.92zm-76.23,-7.47c1.47,-1.68 3.54,-2.66 5.7,-2.76l33.44,-1.87c4.53,-0.29 8.46,3.25 8.76,7.77l0.19,2.76l-5.21,-0.3c-5.6,-0.29 -10.52,3.94 -10.82,9.64l-0.59,9.35l-9.34,10.52c-0.2,0.3 -0.59,0.39 -0.99,0.49c-0.39,0 -0.68,-0.1 -0.98,-0.39l-7.67,-6.89c-1.38,-1.27 -3.44,-1.08 -4.72,0.3l-7.97,8.95l-1.77,-31.48c-0.2,-2.26 0.59,-4.42 1.97,-6.09zm8.55,47.21c-4.23,0.2 -7.96,-2.75 -8.65,-6.98l9.24,-10.33c0.2,-0.3 0.59,-0.4 0.99,-0.49c0.39,0 0.69,0.09 0.98,0.39l7.67,6.89c0.69,0.59 1.58,0.88 2.46,0.88c0.89,0 1.67,-0.49 2.26,-1.08l7.68,-8.66l-1.09,18.3l-21.54,1.08zm75.25,-29.02l-1.97,33.45c-0.29,4.52 -4.23,8.06 -8.75,7.77l-33.44,-1.97c-4.53,-0.3 -8.07,-4.23 -7.77,-8.75l1.96,-33.45c0.3,-4.33 3.84,-7.77 8.26,-7.77l0.5,0l33.44,1.97c4.62,0.29 8.06,4.23 7.77,8.75z" fill="#ff0000" id="svg_2"/>
  <path d="m77.9,41.4l-16.62,-10.92c-2.07,-1.37 -4.82,-0.78 -6.1,1.28c-0.39,0.69 -0.69,1.38 -0.69,2.17l-1.18,19.77c-0.1,2.46 1.67,4.52 4.13,4.72l0.3,0c0.69,0 1.38,-0.2 1.97,-0.49l17.7,-8.86c2.16,-1.08 3.05,-3.73 1.97,-5.9c-0.4,-0.69 -0.89,-1.28 -1.48,-1.77zm-1.37,5.9l-17.71,8.86c-0.39,0.19 -0.79,0.29 -1.28,0.29c-0.39,0 -0.88,-0.2 -1.18,-0.39c-0.69,-0.49 -1.18,-1.28 -1.08,-2.17l1.18,-19.77c0.1,-0.88 0.59,-1.67 1.38,-2.06c0.78,-0.4 1.67,-0.3 2.46,0.1l16.42,10.91c1.18,0.79 1.48,2.27 0.69,3.35c-0.2,0.39 -0.49,0.69 -0.88,0.88z" fill="#ff0000" id="svg_3"/>
 </g>
</svg>
